svgs/regular/arrow-down-left.svg

<svg xmlns="http://www.w3.org/2000/svg" viewBox="0 0 320 512"><!--! Font Awesome Pro 6.2.0 by @fontawesome - https://fontawesome.com License - https://fontawesome.com/license (Commercial License) Copyright 2022 Fonticons, Inc. --><path d="M312.1 136.1L81.94 368H264c13.25 0 24 10.75 24 24S277.3 416 264 416h-240C10.75 416 0 405.3 0 392v-240C0 138.8 10.75 128 24 128S48 138.8 48 152v182.1l231-231c9.375-9.375 24.56-9.375 33.94 0S322.3 127.6 312.1 136.1z"/></svg>

<svg xmlns="http://www.w3.org/2000/svg" viewBox="0 0 320 512"><!--! Font Awesome Pro 6.3.0 by @fontawesome - https://fontawesome.com License - https://fontawesome.com/license (Commercial License) Copyright 2023 Fonticons, Inc. --><path d="M24 416c-13.3 0-24-10.7-24-24V152c0-13.3 10.7-24 24-24s24 10.7 24 24V334.1L279 103c9.4-9.4 24.6-9.4 33.9 0s9.4 24.6 0 33.9L81.9 368H264c13.3 0 24 10.7 24 24s-10.7 24-24 24H24z"/></svg>
